svg/color/lif.svg

<?xml version="1.0" encoding="UTF-8" ?>
<!DOCTYPE svg PUBLIC "-//W3C//DTD SVG 1.1//EN" "http://www.w3.org/Graphics/SVG/1.1/DTD/svg11.dtd">
<svg width="250pt" height="250pt" viewBox="0 0 250 250" version="1.1" xmlns="http://www.w3.org/2000/svg">
<g id="#62d8aeff">
<path fill="#62d8ae" opacity="1.00" d=" M 0.00 0.00 L 23.62 0.00 C 32.67 1.31 40.57 8.85 41.52 18.06 C 41.89 23.36 41.59 28.68 41.68 33.99 C 27.79 34.00 13.90 33.95 0.00 33.95 L 0.00 0.00 Z" />
</g>
<g id="#ffffffff">
<path fill="#ffffff" opacity="1.00" d=" M 23.62 0.00 L 161.63 0.00 C 144.55 1.29 127.80 7.58 114.55 18.52 C 104.70 26.51 96.76 36.80 91.42 48.31 C 87.58 56.94 84.96 66.21 84.36 75.66 C 83.53 86.09 83.98 96.56 83.89 107.02 C 83.96 115.77 83.66 124.52 84.08 133.27 C 83.79 144.19 83.66 155.14 84.15 166.06 C 107.10 166.20 130.05 166.10 153.01 166.12 C 164.64 166.10 176.49 166.49 187.83 163.44 C 212.28 157.35 233.28 139.29 243.21 116.17 C 246.55 108.47 248.64 100.26 249.60 91.92 C 249.76 90.50 249.91 89.07 250.00 87.64 L 250.00 226.23 C 248.79 219.35 244.41 212.95 237.93 210.09 C 233.30 207.77 228.00 208.31 223.00 208.26 C 165.34 208.27 107.68 208.25 50.02 208.26 C 47.21 208.32 44.40 208.36 41.62 207.95 C 41.75 202.34 41.66 196.73 41.69 191.11 C 41.68 182.73 41.69 174.34 41.68 165.95 C 41.68 146.29 41.69 126.62 41.69 106.96 C 41.67 91.32 41.69 75.68 41.68 60.04 C 41.68 51.35 41.69 42.67 41.68 33.99 C 41.59 28.68 41.89 23.36 41.52 18.06 C 40.57 8.85 32.67 1.31 23.62 0.00 Z" />
</g>
<g id="#66daa9ff">
<path fill="#66daa9" opacity="1.00" d=" M 161.63 0.00 L 250.00 0.00 L 250.00 50.11 C 201.00 49.71 152.00 50.29 103.00 49.92 C 99.19 49.52 94.52 51.18 91.42 48.31 C 96.76 36.80 104.70 26.51 114.55 18.52 C 127.80 7.58 144.55 1.29 161.63 0.00 Z" />
</g>
<g id="#67dba8ff">
<path fill="#67dba8" opacity="1.00" d=" M 0.00 33.95 C 13.90 33.95 27.79 34.00 41.68 33.99 C 41.69 42.67 41.68 51.35 41.68 60.04 C 27.79 60.03 13.89 60.09 0.00 60.01 L 0.00 33.95 Z" />
</g>
<g id="#70df9cff">
<path fill="#70df9c" opacity="1.00" d=" M 84.36 75.66 C 84.96 66.21 87.58 56.94 91.42 48.31 C 94.52 51.18 99.19 49.52 103.00 49.92 C 152.00 50.29 201.00 49.71 250.00 50.11 L 250.00 87.64 C 249.91 89.07 249.76 90.50 249.60 91.92 C 196.74 91.95 143.89 91.84 91.03 91.94 C 89.09 91.91 87.16 91.81 85.23 91.72 C 85.13 86.35 85.16 80.98 84.36 75.66 Z" />
</g>
<g id="#6cdda1ff">
<path fill="#6cdda1" opacity="1.00" d=" M 0.00 60.01 C 13.89 60.09 27.79 60.03 41.68 60.04 C 41.69 75.68 41.67 91.32 41.69 106.96 C 27.79 107.18 13.89 107.08 0.00 107.09 L 0.00 60.01 Z" />
</g>
<g id="#78e393ff">
<path fill="#78e393" opacity="1.00" d=" M 83.89 107.02 C 83.98 96.56 83.53 86.09 84.36 75.66 C 85.16 80.98 85.13 86.35 85.23 91.72 C 87.16 91.81 89.09 91.91 91.03 91.94 C 143.89 91.84 196.74 91.95 249.60 91.92 C 248.64 100.26 246.55 108.47 243.21 116.17 C 194.81 116.04 146.41 116.16 98.01 116.11 C 93.77 116.04 89.53 116.03 85.30 116.30 C 84.86 121.96 85.58 127.72 84.08 133.27 C 83.66 124.52 83.96 115.77 83.89 107.02 Z" />
</g>
<g id="#75e197ff">
<path fill="#75e197" opacity="1.00" d=" M 0.00 107.09 C 13.89 107.08 27.79 107.18 41.69 106.96 C 41.69 126.62 41.68 146.29 41.68 165.95 C 27.79 165.85 13.89 165.89 0.00 165.93 L 0.00 107.09 Z" />
</g>
<g id="#80e789ff">
<path fill="#80e789" opacity="1.00" d=" M 85.30 116.30 C 89.53 116.03 93.77 116.04 98.01 116.11 C 146.41 116.16 194.81 116.04 243.21 116.17 C 233.28 139.29 212.28 157.35 187.83 163.44 C 176.49 166.49 164.64 166.10 153.01 166.12 C 130.05 166.10 107.10 166.20 84.15 166.06 C 83.66 155.14 83.79 144.19 84.08 133.27 C 85.58 127.72 84.86 121.96 85.30 116.30 Z" />
</g>
<g id="#7ce58fff">
<path fill="#7ce58f" opacity="1.00" d=" M 0.00 165.93 C 13.89 165.89 27.79 165.85 41.68 165.95 C 41.69 174.34 41.68 182.73 41.69 191.11 C 27.79 191.15 13.89 191.16 0.00 191.14 L 0.00 165.93 Z" />
</g>
<g id="#84e885ff">
<path fill="#84e885" opacity="1.00" d=" M 0.00 191.14 C 13.89 191.16 27.79 191.15 41.69 191.11 C 41.66 196.73 41.75 202.34 41.62 207.95 C 44.40 208.36 47.21 208.32 50.02 208.26 C 107.68 208.25 165.34 208.27 223.00 208.26 C 228.00 208.31 233.30 207.77 237.93 210.09 C 244.41 212.95 248.79 219.35 250.00 226.23 L 250.00 250.00 L 0.00 250.00 L 0.00 191.14 Z" />
</g>
</svg>

<?xml version="1.0" encoding="utf-8"?>
<!-- Generator: Adobe Illustrator 26.0.3, SVG Export Plug-In . SVG Version: 6.00 Build 0)  -->
<svg version="1.1" id="Layer_1" xmlns="http://www.w3.org/2000/svg" xmlns:xlink="http://www.w3.org/1999/xlink" x="0px" y="0px"
	 viewBox="0 0 250 250" style="enable-background:new 0 0 250 250;" xml:space="preserve">
<style type="text/css">
	.st0{fill:#62D8AE;}
	.st1{fill:#66DAA9;}
	.st2{fill:#67DBA8;}
	.st3{fill:#70DF9C;}
	.st4{fill:#6CDDA1;}
	.st5{fill:#78E393;}
	.st6{fill:#75E197;}
	.st7{fill:#80E789;}
	.st8{fill:#7CE58F;}
	.st9{fill:#84E885;}
</style>
<g id="_x23_62d8aeff">
	<path class="st0" d="M0,0h23.6c9,1.3,16.9,8.9,17.9,18.1c0.4,5.3,0.1,10.6,0.2,15.9C27.8,34,13.9,34,0,34V0z"/>
</g>
<g id="_x23_66daa9ff">
	<path class="st1" d="M161.6,0H250v50.1c-49-0.4-98,0.2-147-0.2c-3.8-0.4-8.5,1.3-11.6-1.6c5.3-11.5,13.3-21.8,23.1-29.8
		C127.8,7.6,144.6,1.3,161.6,0z"/>
</g>
<g id="_x23_67dba8ff">
	<path class="st2" d="M0,34c13.9,0,27.8,0,41.7,0c0,8.7,0,17.4,0,26c-13.9,0-27.8,0-41.7,0V34z"/>
</g>
<g id="_x23_70df9cff">
	<path class="st3" d="M84.4,75.7c0.6-9.5,3.2-18.7,7.1-27.4c3.1,2.9,7.8,1.2,11.6,1.6c49,0.4,98-0.2,147,0.2v37.5
		c-0.1,1.4-0.2,2.9-0.4,4.3c-52.9,0-105.7-0.1-158.6,0c-1.9,0-3.9-0.1-5.8-0.2C85.1,86.3,85.2,81,84.4,75.7z"/>
</g>
<g id="_x23_6cdda1ff">
	<path class="st4" d="M0,60c13.9,0.1,27.8,0,41.7,0c0,15.6,0,31.3,0,46.9c-13.9,0.2-27.8,0.1-41.7,0.1V60z"/>
</g>
<g id="_x23_78e393ff">
	<path class="st5" d="M83.9,107c0.1-10.5-0.4-20.9,0.5-31.4c0.8,5.3,0.8,10.7,0.9,16.1c1.9,0.1,3.9,0.2,5.8,0.2
		c52.9-0.1,105.7,0,158.6,0c-1,8.3-3.1,16.6-6.4,24.2c-48.4-0.1-96.8,0-145.2-0.1c-4.2-0.1-8.5-0.1-12.7,0.2
		c-0.4,5.7,0.3,11.4-1.2,17C83.7,124.5,84,115.8,83.9,107z"/>
</g>
<g id="_x23_75e197ff">
	<path class="st6" d="M0,107.1c13.9,0,27.8,0.1,41.7-0.1c0,19.7,0,39.3,0,59c-13.9-0.1-27.8-0.1-41.7,0V107.1z"/>
</g>
<g id="_x23_80e789ff">
	<path class="st7" d="M85.3,116.3c4.2-0.3,8.5-0.3,12.7-0.2c48.4,0.1,96.8-0.1,145.2,0.1c-9.9,23.1-30.9,41.2-55.4,47.3
		c-11.3,3.1-23.2,2.7-34.8,2.7c-23,0-45.9,0.1-68.9-0.1c-0.5-10.9-0.4-21.9-0.1-32.8C85.6,127.7,84.9,122,85.3,116.3z"/>
</g>
<g id="_x23_7ce58fff">
	<path class="st8" d="M0,165.9c13.9,0,27.8-0.1,41.7,0c0,8.4,0,16.8,0,25.2c-13.9,0-27.8,0.1-41.7,0V165.9z"/>
</g>
<g id="_x23_84e885ff">
	<path class="st9" d="M0,191.1c13.9,0,27.8,0,41.7,0c0,5.6,0.1,11.2-0.1,16.8c2.8,0.4,5.6,0.4,8.4,0.3c57.7,0,115.3,0,173,0
		c5,0.1,10.3-0.5,14.9,1.8c6.5,2.9,10.9,9.3,12.1,16.1V250H0V191.1z"/>
</g>
</svg>
